src/assets/vectors/google-plus.svg

<svg width="27" height="17" viewBox="0 0 27 17" fill="none" xmlns="http://www.w3.org/2000/svg">
<path fill-rule="evenodd" clip-rule="evenodd" d="M8.48511 6.81681V10.1832C8.48511 10.1832 11.7449 10.1786 13.0722 10.1786C12.3533 12.3612 11.2358 13.5496 8.48511 13.5496C5.70131 13.5496 3.52856 11.2888 3.52856 8.49967C3.52856 5.71124 5.70131 3.45045 8.48511 3.45045C9.95677 3.45045 10.9074 3.96881 11.7793 4.69107C12.4771 3.99198 12.4188 3.89201 14.1944 2.21181C12.6869 0.837455 10.6837 0 8.48511 0C3.79933 0 0 3.80529 0 8.49967C0 13.194 3.79933 17 8.48511 17C15.4893 17 17.2013 10.8902 16.6339 6.81681H8.48511ZM23.7744 6.98497V4.03964H21.6745V6.98497H18.6498V9.08887H21.6745V12.1189H23.7744V9.08887H26.7145V6.98497H23.7744Z" fill="#F31E10"/>
</svg>

<svg width="27" height="17" fill="none" 
    xmlns="http://www.w3.org/2000/svg">
    <path fill-rule="evenodd" clip-rule="evenodd" d="M8.485 6.817v3.366s3.26-.004 4.587-.004c-.719 2.182-1.836 3.37-4.587 3.37-2.784 0-4.956-2.26-4.956-5.05 0-2.788 2.172-5.049 4.956-5.049 1.472 0 2.422.519 3.294 1.241.698-.699.64-.799 2.415-2.48A8.446 8.446 0 0 0 8.485 0C3.8 0 0 3.805 0 8.5 0 13.194 3.8 17 8.485 17c7.004 0 8.716-6.11 8.149-10.183H8.485zm15.29.168V4.04h-2.1v2.945H18.65v2.104h3.024v3.03h2.1v-3.03h2.94V6.985h-2.94z" fill="#FFFFFF"/>
</svg>
